pieces/chess7/pb.svg

<svg width="68" height="68" viewBox="0 0 68 68" fill="none" xmlns="http://www.w3.org/2000/svg">
<path d="M27.792 29.328C27.792 28.6027 28.048 28.048 28.56 27.664C28.8587 27.536 29.4773 26.9387 30.416 25.872C28.9227 25.1893 27.6853 24.1653 26.704 22.8C25.7653 21.392 25.296 19.792 25.296 18C25.296 15.6107 26.1493 13.584 27.856 11.92C29.6053 10.2133 31.632 9.36 33.936 9.36C36.2827 9.36 38.288 10.2133 39.952 11.92C41.6587 13.584 42.512 15.6107 42.512 18C42.512 19.792 42.0213 21.392 41.04 22.8C40.1013 24.1653 38.9067 25.1893 37.456 25.872C38.352 26.9387 38.9707 27.536 39.312 27.664C39.7387 28.048 39.952 28.6027 39.952 29.328C39.952 30.0533 39.7387 30.6293 39.312 31.056L38.544 31.824C39.312 33.7013 40.0373 35.536 40.72 37.328C41.4027 39.12 42.064 40.72 42.704 42.128C43.216 43.408 43.92 44.24 44.816 44.624L46.224 45.2L48.976 46.864C50.8107 47.9733 51.8987 48.976 52.24 49.872C52.5387 50.7253 52.7307 51.9627 52.816 53.584C52.944 55.1627 53.0507 56.848 53.136 58.64H14.864C14.864 56.848 14.9067 55.1627 14.992 53.584C15.0773 51.9627 15.2907 50.7253 15.632 49.872C15.888 48.976 16.9547 47.9733 18.832 46.864L21.648 45.2L22.992 44.624C23.888 44.24 24.6133 43.408 25.168 42.128C25.7653 40.72 26.4267 39.12 27.152 37.328C27.8773 35.536 28.6027 33.7013 29.328 31.824L28.56 31.056C28.048 30.6293 27.792 30.0533 27.792 29.328Z" fill="black"/>
<path fill-rule="evenodd" clip-rule="evenodd" d="M32.419 30.932L30.983 29.416L32.248 28.02C32.943 27.251 33.596 26.595 33.7 26.56C33.803 26.526 34.584 27.175 35.436 28.003L36.984 29.509L35.419 30.979L33.854 32.448L32.419 30.932Z" fill="white"/>
</svg>

<svg height="68" width="68" xmlns="http://www.w3.org/2000/svg"><path d="m27.792 29.328q0-1.088.768-1.664.448-.192 1.856-1.792-2.24-1.024-3.712-3.072-1.408-2.112-1.408-4.8 0-3.584 2.56-6.08 2.624-2.56 6.08-2.56 3.52 0 6.016 2.56 2.56 2.496 2.56 6.08 0 2.688-1.472 4.8-1.408 2.048-3.584 3.072 1.344 1.6 1.856 1.792.64.576.64 1.664t-.64 1.728l-.768.768q1.152 2.816 2.176 5.504 1.024 2.688 1.984 4.8.768 1.92 2.112 2.496l1.408.576 2.752 1.664q2.752 1.664 3.264 3.008.448 1.28.576 3.712.192 2.368.32 5.056h-38.272q0-2.688.128-5.056.128-2.432.64-3.712.384-1.344 3.2-3.008l2.816-1.664 1.344-.576q1.344-.576 2.176-2.496.896-2.112 1.984-4.8 1.088-2.688 2.176-5.504l-.768-.768q-.768-.64-.768-1.728zm5.952-3.008q-2.688 2.88-2.88 3.072.192.256 1.472 1.6 1.344 1.28 1.6 1.6.192-.32 1.472-1.6 1.344-1.344 1.728-1.6-.384-.192-1.856-1.6-1.408-1.472-1.536-1.472z"/><path d="m32.419 30.932-1.436-1.516 1.265-1.396c.695-.769 1.348-1.425 1.452-1.46.103-.034.884.615 1.736 1.443l1.548 1.506-1.565 1.47-1.565 1.469z" fill="#fff" fill-rule="evenodd"/></svg>
